assets/01_base/Base_36.svg

<svg width="500" height="500" viewBox="0 0 500 500" fill="none" xmlns="http://www.w3.org/2000/svg">
<g clip-path="url(#clip0_70_466)">
<g clip-path="url(#clip1_70_466)">
<path d="M180.353 133.673L132.165 197.395L55.071 139.191C39.2078 127.21 37.1051 103.182 50.3999 85.6023C63.6813 68.0363 87.3963 63.4885 103.26 75.4563L180.353 133.66M233.027 119.232L129.357 40.9624C96.2595 15.9763 46.9664 25.4309 19.2456 62.0923C-8.47512 98.7403 -4.12338 148.713 28.9738 173.699L132.631 251.968C135.159 253.883 138.939 253.152 141.068 250.346L233.759 127.769C235.888 124.963 235.542 121.133 233.013 119.219L233.027 119.232Z" fill="#E03C96"/>
<path d="M500 320.809L139.098 48.316C85.9319 118.62 71.9584 205.201 94.5822 278.231L68.7379 312.405C58.9165 325.397 60.4602 343.123 72.1846 351.979L225.906 468.053C237.644 476.909 255.118 473.559 264.952 460.567L290.797 426.392C367.291 428.187 446.821 391.114 500 320.809Z" fill="#F4A6C8"/>
</g>
</g>
<defs>
<clipPath id="clip0_70_466">
<rect width="500" height="500" fill="white"/>
</clipPath>
<clipPath id="clip1_70_466">
<rect width="499" height="446" fill="white" transform="translate(1 27)"/>
</clipPath>
</defs>
</svg>

<svg xmlns="http://www.w3.org/2000/svg" width="500" height="500" fill="none" viewBox="0 0 500 500"><g clip-path="url(#a)"><g clip-path="url(#b)"><path fill="#e03c96" d="m180.353 133.673-48.188 63.722-77.094-58.204C39.208 127.21 37.105 103.182 50.4 85.602c13.281-17.566 36.996-22.114 52.86-10.146l77.093 58.204m52.674-14.428-103.67-78.27C96.26 15.976 46.967 25.431 19.246 62.092-8.475 98.74-4.124 148.713 28.974 173.7l103.657 78.269c2.528 1.915 6.308 1.184 8.437-1.622l92.691-122.577c2.129-2.806 1.783-6.636-.746-8.55z"/><path fill="#f4a6c8" d="M500 320.809 139.098 48.316c-53.166 70.304-67.14 156.885-44.516 229.915l-25.844 34.174c-9.821 12.992-8.278 30.718 3.447 39.574l153.721 116.074c11.738 8.856 29.212 5.506 39.046-7.486l25.845-34.175c76.494 1.795 156.024-35.278 209.203-105.583"/></g></g><defs><clipPath id="a"><path fill="#fff" d="M0 0h500v500H0z"/></clipPath><clipPath id="b"><path fill="#fff" d="M1 27h499v446H1z"/></clipPath></defs></svg>
